packages/common/src/icons/heart-open.svg

<svg width="1em" height="1em" viewBox="0 0 24 24" fill="none" xmlns="http://www.w3.org/2000/svg">
<path fill-rule="evenodd" clip-rule="evenodd" d="M4.0017 8.9378C4.0017 6.75706 5.74963 4 8.88834 4C10.503 4 11.712 4.87136 12.4431 5.59353C12.4623 5.61249 12.4813 5.63145 12.5 5.65037C12.5187 5.63145 12.5377 5.61249 12.5569 5.59353C13.288 4.87136 14.497 4 16.1117 4C17.6679 4 18.9083 4.71755 19.7342 5.67206C20.5403 6.60372 20.9983 7.81008 20.9983 8.9378C20.9983 8.98704 20.9987 9.03897 20.9991 9.09587L20.9991 9.10639C21.0016 9.46113 21.0051 9.95221 20.9079 10.5163C20.7906 11.1963 20.5372 11.9459 20.0342 12.8131C19.0498 14.5101 17.0988 16.6729 13.3023 19.7185C12.8345 20.0938 12.1655 20.0938 11.6977 19.7185C7.90336 16.6747 5.95179 14.5243 4.96694 12.8334C4.46312 11.9684 4.20931 11.2194 4.09199 10.536C3.99494 9.97071 3.99836 9.47516 4.00086 9.11225L4.00093 9.10115C4.00134 9.04263 4.0017 8.98892 4.0017 8.9378ZM8.88834 5.26316C6.62851 5.26316 5.27667 7.26796 5.27667 8.9378C5.27667 8.9936 5.27627 9.05131 5.27588 9.10855L5.27587 9.10975C5.27336 9.47496 5.27168 9.87439 5.3489 10.3242C5.43919 10.8501 5.63783 11.458 6.07124 12.2021C6.93805 13.6904 8.74391 15.7237 12.5 18.7368C16.2561 15.7237 18.062 13.6781 18.9288 12.1837C19.3622 11.4365 19.5608 10.8272 19.6511 10.3035C19.7284 9.85536 19.7266 9.46053 19.7241 9.10468L19.7241 9.10331C19.7237 9.04777 19.7233 8.99179 19.7233 8.9378C19.7233 8.12944 19.3863 7.21077 18.7662 6.49416C18.146 5.77737 17.243 5.26316 16.1117 5.26316C14.9803 5.26316 14.0774 5.87528 13.4571 6.48804C13.2811 6.6619 13.1275 6.83611 12.9977 6.9968C12.8768 7.14659 12.6936 7.23378 12.5 7.23378C12.3064 7.23378 12.1232 7.14659 12.0023 6.9968C11.8725 6.83611 11.7189 6.66191 11.5429 6.48804C10.9226 5.87528 10.0197 5.26316 8.88834 5.26316Z" fill="currentColor"/>
</svg>

<svg width="1em" height="1em" viewBox="0 0 24 24" fill="none" xmlns="http://www.w3.org/2000/svg"><path fill-rule="evenodd" clip-rule="evenodd" d="M4.002 8.938C4.002 6.758 5.75 4 8.888 4c1.615 0 2.824.871 3.555 1.594.02.018.038.037.057.056l.057-.056C13.288 4.87 14.497 4 16.112 4c1.556 0 2.796.718 3.622 1.672.806.932 1.264 2.138 1.264 3.266l.001.158v.01c.003.355.006.846-.091 1.41-.117.68-.37 1.43-.874 2.297-.984 1.697-2.935 3.86-6.732 6.905a1.284 1.284 0 01-1.604 0c-3.795-3.043-5.746-5.194-6.731-6.885-.504-.865-.758-1.614-.875-2.297-.097-.565-.094-1.06-.091-1.424v-.01-.164zm4.886-3.675c-2.26 0-3.611 2.005-3.611 3.675l-.001.17v.002c-.003.365-.004.764.073 1.214.09.526.289 1.134.722 1.878.867 1.488 2.673 3.522 6.429 6.535 3.756-3.013 5.562-5.059 6.429-6.553.433-.747.632-1.357.722-1.88.077-.449.076-.843.073-1.2v-.166c0-.809-.338-1.727-.958-2.444-.62-.717-1.523-1.23-2.654-1.23-1.132 0-2.035.611-2.655 1.224-.176.174-.33.348-.46.509a.64.64 0 01-.995 0 6.145 6.145 0 00-.46-.509c-.62-.613-1.522-1.225-2.654-1.225z" fill="currentColor"/></svg>
